X:656
T: Shihenxin
N: C2182
O: China, Hunan Lingxian
S: I, 519]
R: Xiaodiao]
M: 2/4
L: 1/16
K: Eb
c2cGB4 | c2cGB4 | G2G2G2B2 | c2cGB4
B2B2e2e2 | e2cBG4 | B2B2e2e2 | B2Bce4
e2ecB4 | B2B2e2fe | e4cBc2 | B8

